apps/web/public/images/iconographie/visuel-erreur.svg

<svg width="82" height="88" viewBox="0 0 82 88" fill="none" xmlns="http://www.w3.org/2000/svg">
    <g clip-path="url(#clip0_14412_40651)">
        <path d="M40.9838 88C63.4039 88 81.579 69.8249 81.579 47.4049C81.579 24.9848 63.4039 6.80969 40.9838 6.80969C18.5637 6.80969 0.388672 24.9848 0.388672 47.4049C0.388672 69.8249 18.5637 88 40.9838 88Z" fill="#0C008A"/>
        <path d="M40.9838 81.2529C63.4039 81.2529 81.579 63.0778 81.579 40.6577C81.579 18.2376 63.4039 0.062561 40.9838 0.062561C18.5637 0.062561 0.388672 18.2376 0.388672 40.6577C0.388672 63.0778 18.5637 81.2529 40.9838 81.2529Z" fill="url(#paint0_linear_14412_40651)"/>
        <path d="M48.3597 39.3885L59.1325 28.6157C59.9524 27.7958 59.9524 26.4676 59.1325 25.649L54.4033 20.9197C53.5833 20.0998 52.2552 20.0998 51.4365 20.9197L40.6637 31.6925L29.8909 20.9197C29.071 20.0998 27.7429 20.0998 26.9242 20.9197L22.195 25.649C21.3751 26.4689 21.3751 27.797 22.195 28.6157L32.9678 39.3885L22.195 50.1613C21.3751 50.9812 21.3751 52.3093 22.195 53.128L26.9242 57.8572C27.7441 58.6771 29.0723 58.6771 29.8909 57.8572L40.6637 47.0844L51.4365 57.8572C52.2565 58.6771 53.5846 58.6771 54.4033 57.8572L59.1325 53.128C59.9524 52.3081 59.9524 50.9799 59.1325 50.1613L48.3597 39.3885Z" fill="white"/>
    </g>
    <defs>
        <linearGradient id="paint0_linear_14412_40651" x1="9.74321" y1="57.7533" x2="80.9819" y2="18.7716" gradientUnits="userSpaceOnUse">
            <stop stop-color="#DC000F"/>
            <stop offset="1" stop-color="#F4849A"/>
        </linearGradient>
        <clipPath id="clip0_14412_40651">
            <rect width="81.3656" height="88" fill="white" transform="translate(0.316406)"/>
        </clipPath>
    </defs>
</svg>

<svg width="82" height="88" viewBox="0 0 82 88" fill="none" xmlns="http://www.w3.org/2000/svg"><g clip-path="url(#a)"><path d="M40.984 88c22.42 0 40.595-18.175 40.595-40.595S63.404 6.81 40.984 6.81.389 24.985.389 47.405 18.564 88 40.984 88" fill="#0C008A"/><path d="M40.984 81.253c22.42 0 40.595-18.175 40.595-40.595S63.404.063 40.984.063.389 18.238.389 40.658s18.175 40.595 40.595 40.595" fill="url(#b)"/><path d="m48.36 39.389 10.773-10.773c.82-.82.82-2.148 0-2.967l-4.73-4.73a2.097 2.097 0 0 0-2.966 0L40.664 31.693 29.89 20.92a2.097 2.097 0 0 0-2.967 0l-4.729 4.729c-.82.82-.82 2.148 0 2.967l10.773 10.773L22.195 50.16c-.82.82-.82 2.148 0 2.967l4.73 4.73c.82.82 2.147.82 2.966 0l10.773-10.774 10.773 10.773c.82.82 2.148.82 2.966 0l4.73-4.729c.82-.82.82-2.148 0-2.967z" fill="#fff"/></g><defs><linearGradient id="b" x1="9.743" y1="57.753" x2="80.982" y2="18.772" gradientUnits="userSpaceOnUse"><stop stop-color="#DC000F"/><stop offset="1" stop-color="#F4849A"/></linearGradient><clipPath id="a"><path fill="#fff" d="M.316 0h81.366v88H.316z"/></clipPath></defs></svg>
